X:1
T:Title
%%score { ( 1 3 5 ) | ( 2 4 ) }
L:1/8
Q:1/4=100
M:4/4
K:Ab
V:1 treble nm="Grand Piano"
V:3 treble 
V:5 treble 
V:2 bass 
V:4 bass 
V:1
 [CE][CE] [CA]>[DB] c c2 [EA] | BB A>F [CE]4 | [CE][CE] [EA]>B ccBA | z4 B4[K:bass] | %4
w: Chas.~H.~Gabriel * * * * * *||||
 [CE][CE][K:treble] [CA]>[DB] c c2 [EA] | BB A>F [CE]3 c | eee[Ec] [Ed][Ed][Ec][FB] | %7
w: |||
 AA c>B [CA]4 | c2 B2 A4 | A2 z2 z4 | e2 d2 c4 | cc[=DB][DA] [EB]4 | z4 A4 | %13
w: ||||||
 [FA][FB] [FA]>[DF] [CE]3 c | eee[Ec] [Ed][Ed][Ec][FB] | AA c>B [CA]4 |] %16
w: |||
V:2
 [A,,A,][A,,A,] [A,,A,]>[A,,A,] [A,E] [A,E]2 [C,A,] | [D,F,D][D,F,D] [D,F,D]>[D,A,D] [A,,A,]4 | %2
 [A,,A,][A,,A,] [C,A,]>[E,G,E][K:treble] [A,E][A,EA][DEG][CE] | z4[K:bass] E4 | %4
 [A,,A,][A,,A,] [A,,A,]>[A,,A,] [A,E] [A,E]2 [C,A,] | %5
 [D,F,D][D,F,D] [D,F,D]>[D,A,D] [A,,A,]3 [A,E] | %6
 [A,CE][A,CE][A,CE][A,,A,] [B,,G,][B,,G,][C,A,][D,D] | [E,CE][E,CE] [E,A,E]>[E,G,D] [A,,A,]4 | %8
 [A,E]A,[E,G,D][E,G,] [A,,A,][A,,F,] [A,,E,]2 | z2 [D,D]2 z4 | %10
 [A,CE][A,C][G,B,E][G,B,] [A,E]A, A,2 | [F,A,=D][F,A,D][B,,A,][B,,A,] [E,G,]4 | %12
 [A,,A,][A,,A,] [A,,A,]>[A,,E,] [A,,E,]2 [C,A,]2 | [D,D][D,D] [D,D]>[D,A,] [A,,A,]3 [A,E] | %14
 [A,CE][A,CE][A,CE][A,,A,] [B,,G,][B,,G,][B,,G,][D,D] | [E,CE][E,CE] [E,A,E]>[E,G,D] [A,,A,]4 |] %16
V:3
 x8 | x8 | x8 | dcBA z[K:bass] D,C,D | x2[K:treble] x6 | x8 | x8 | x8 | z E z D CD C2 | %9
 z z/ B/ AF CC C2 | z E z E z E z c | x8 | [Ec][Ec] [Ec]>[DB] C2 E2 | x8 | x8 | x8 |] %16
V:4
 x8 | x8 | x4[K:treble] x4 | [B,EG][A,EA][K:bass][G,E][F,B,=D] [E,G,]3- [B,,E,G,] | x8 | x8 | x8 | %7
 x8 | x8 | [D,F,D][D,F,]F,A, [A,,A,][A,,A,] [A,,A,]2 | x8 | x8 | x8 | x8 | x8 | x8 |] %16
V:5
 x8 | x8 | x8 | x5[K:bass] x3 | x2[K:treble] x6 | x8 | x8 | x8 | x8 | z D z2 E4 | z4 z2 E2 | x8 | %12
 x8 | x8 | x8 | x8 |] %16

